X:83
L:1/4
M:2/2
K:D
 A3/2 B/ A3/2 B/ | A d f2 | e3/2 f/ g c | d e f2 | A3/2 B/ A3/2 B/ | A3/2 d f2 | e3/2 f/ g c | 
 e d d2 :: d c B c | B A A2 | a g B c | d e f2 | d c B c | B A A2 | a g B c | e d d2 :|

